X:1
T:Waterloo
M:3/2
L:1/4
K:G
 z2 z E G A| B3- A E E| D2 A2 B A| B d e2-e/2-B/2e/2-f/2| ed/2-B/2 B3 A|\
 E E D3 E/2E/2| A3 B/2A/2 E D| E3 z2 z|

